sort-clock-ascending.svg

<svg fill="currentColor" viewBox="0 0 24 24"><path d="M20 17h3l-4 4-4-4h3V3h2zM8 5c-3.86 0-7 3.13-7 7s3.13 7 7 7c3.86 0 7-3.13 7-7s-3.13-7-7-7m2.19 9.53L7 12.69V9h1.5v2.82l2.44 1.41z"/></svg>

<svg  viewBox="0 0 24 24" fill="currentColor"><path  d="M20 17H23L19 21L15 17H18V3H20V17M8 5C4.14 5 1 8.13 1 12C1 15.87 4.13 19 8 19C11.86 19 15 15.87 15 12C15 8.13 11.87 5 8 5M10.19 14.53L7 12.69V9H8.5V11.82L10.94 13.23L10.19 14.53Z"/></svg>
